!!!COM: Schubert, Franz
!!!CDT: 1797/01/31/-1828/11/19/
!!!CNT: Austrian
!!!OTL@@DE: Variationen &uuml;ber ein Thema von Anselm H&uuml;ttenbrenner
!!!OTL@EN: 13 Variations on a Theme by Anselm H&uuml;ttenbrenner
!!!OKY: A Minor
!!!SCT: D 576
!!!PDT: 1867///
!!!ODT: 1817/08//
!!!YEC: Copyright 2001 by Craig Stuart Sapp
!!!YEN: United States of America
!!!OMD: Var. 4
**kern	**kern
*clefF4	*clefG2
*k[]	*k[]
*M2/4	*M2/4
*MM72	*MM72
*>[A,A,B,B1,B,B2]	*>[A,A,B,B1,B,B2]
*>A	*>A
16a	8.cc
16g#	.
16a	.
16cc	16ee
16b	8dd' 8ee'
16g#	.
16a	8cc' 8ee'
16e	.
=67	=67
16d	4b 4ee
16c#	.
16d	.
16B	.
16cn	8a' 8ee'
16A	.
16G#	8dd' 8ee'
16E	.
=68	=68
*	*^
16Gn	4e^	4cc# 4ee
16F#	.	.
16G	.	.
16A	.	.
16Fn	8f	4dd 4ff
16E	.	.
16D	8f#	.
16C	.	.
=69	=69	=69
16BB	4g 4ff	2d
16AA#	.	.
16BB	.	.
16D	.	.
16AA-	8cc 8ff#	.
16D	.	.
16GG	8b 8gg	.
16D	.	.
=70	=70	=70
16FFn	4b 4dd 4bb	2gg
16EE	.	.
16FF	.	.
16GG	.	.
16EE	8cc' 8gg' 8ccc'	.
16GG	.	.
16DD	8dd' 8bb' 8ddd'	.
16GG	.	.
*	*v	*v
=71	=71
16CC	4ee 4ccc 4eee
16BBB	.
16CC	.
16EE	.
16BBB	8gg#' 8ddd' 8ggg#'
16EE	.
16AAA	8aa' 8ccc' 8aaa'
16CC	.
=72	=72
16EE	4cc 4ee 4aa 4ccc
16AA	.
16C'	.
16D#'	.
16E	4dd 4gg# 4bb 4eee
16G#	.
16B'	.
16e'	.
=73	=73
16AA	4a 4cc 4ee 4aa
16C	.
16E'	.
16G#'	.
16A	4r
16c	.
16e'	.
16g#'	.
=74:|!|:	=74:|!|:
*>B	*>B
*^	*
4a	2a	16cc#
.	.	16aa
.	.	16ee
.	.	16cc#
8g#	.	16b
.	.	16ee
8g	.	16cc#
.	.	16bb-
*v	*v	*
=75	=75
*	*^
16f 16a	8.dd	4.aa
16a	.	.
16f	.	.
16e	16ee	.
16d	8ff	.
16a	.	.
16cn	8ee	8aa#
16e	.	.
*	*v	*v
=76	=76
*^	*
4B	2B	16dd#
.	.	16bb
.	.	16ff#
.	.	16ee-
8A#	.	16cc#
.	.	16ff#
8An	.	16dd#
.	.	16cccn
*v	*v	*
=77	=77
*	*^
16G#	8ee	2bb
16B	.	.
16D#	8ff#	.
16B	.	.
*	*^	*
16E	8gg	4ggn	.
16B	.	.	.
16Dn	8ff	.	.
16Gn	.	.	.
*	*v	*v	*
*	*v	*v
=78	=78
16C	4ee 4gg 4eee
16BB	.
16C	.
16B-	.
16C#	8ee' 8aa' 8eee'
16A	.
16C#	8ee' 8bb-' 8eee'
16G	.
=79	=79
16F#	4a 4dd 4aa
16E#	.
16F#	.
16A	.
16F#	8a' 8dd#' 8aa'
16B	.
16Fn	8a' 8dd#' 8aa'
16cn	.
=80	=80
16e	4cc 4ee
16d#	.
16e	.
16a	.
16e	8b 8ee
16d#	.
16e	8ddn 8ee
16g#	.
=81	=81
*>B1	*>B1
16A	4cc 4ee
16G#	.
16A	.
16c	.
16e	4r
16f#	.
16gn	.
16g#	.
=82:|!	=82:|!
*>B2	*>B2
16a	4cc 4ee
16g#	.
16a	.
16A	.
8a	4r
8r	.
=|!	=|!
*-	*-
